school977/img/instagram.svg

<svg width="60" height="60" viewBox="0 0 60 60" fill="none" xmlns="http://www.w3.org/2000/svg">
<g clip-path="url(#clip0)">
<path d="M3.75123 4.08176C-0.963769 8.97926 0.00123057 14.1818 0.00123057 29.9868C0.00123057 43.1118 -2.28877 56.2693 9.69623 59.3668C13.4387 60.3293 46.5987 60.3293 50.3362 59.3618C55.3262 58.0743 59.3862 54.0268 59.9412 46.9693C60.0187 45.9843 60.0187 14.0068 59.9387 13.0018C59.3487 5.48426 54.7212 1.15176 48.6237 0.274262C47.2262 0.0717615 46.9462 0.0117615 39.7762 -0.000738502C14.3437 0.0117615 8.76873 -1.12074 3.75123 4.08176Z" fill="url(#paint0_linear)"/>
<path d="M29.9945 7.84755C20.917 7.84755 12.297 7.04005 9.00454 15.4901C7.64454 18.9801 7.84204 23.5126 7.84204 30.0026C7.84204 35.6976 7.65954 41.0501 9.00454 44.5126C12.2895 52.9676 20.9795 52.1576 29.9895 52.1576C38.682 52.1576 47.6445 53.0626 50.977 44.5126C52.3395 40.9876 52.1395 36.5226 52.1395 30.0026C52.1395 21.3476 52.617 15.7601 48.4195 11.5651C44.1695 7.31505 38.422 7.84755 29.9845 7.84755H29.9945ZM28.0095 11.8401C46.9445 11.8101 49.3545 9.70506 48.0245 38.9476C47.552 49.2901 39.677 48.1551 29.997 48.1551C12.347 48.1551 11.8395 47.6501 11.8395 29.9926C11.8395 12.1301 13.2395 11.8501 28.0095 11.8351V11.8401ZM41.8195 15.5176C40.352 15.5176 39.162 16.7076 39.162 18.1751C39.162 19.6426 40.352 20.8326 41.8195 20.8326C43.287 20.8326 44.477 19.6426 44.477 18.1751C44.477 16.7076 43.287 15.5176 41.8195 15.5176ZM29.9945 18.6251C23.712 18.6251 18.6195 23.7201 18.6195 30.0026C18.6195 36.2851 23.712 41.3776 29.9945 41.3776C36.277 41.3776 41.367 36.2851 41.367 30.0026C41.367 23.7201 36.277 18.6251 29.9945 18.6251ZM29.9945 22.6176C39.757 22.6176 39.7695 37.3876 29.9945 37.3876C20.2345 37.3876 20.2195 22.6176 29.9945 22.6176Z" fill="white"/>
</g>
<defs>
<linearGradient id="paint0_linear" x1="3.86628" y1="56.167" x2="59.6299" y2="7.9042" gradientUnits="userSpaceOnUse">
<stop stop-color="#FFDD55"/>
<stop offset="0.5" stop-color="#FF543E"/>
<stop offset="1" stop-color="#C837AB"/>
</linearGradient>
<clipPath id="clip0">
<rect width="60" height="60" fill="white"/>
</clipPath>
</defs>
</svg>

<svg width="60" height="60" fill="none" xmlns="http://www.w3.org/2000/svg"><g clip-path="url(#clip0)"><path d="M3.751 4.082C-.964 8.979.001 14.182.001 29.987c0 13.125-2.29 26.282 9.695 29.38 3.743.962 36.903.962 40.64-.005 4.99-1.288 9.05-5.335 9.605-12.393.078-.985.078-32.962-.002-33.967-.59-7.518-5.218-11.85-11.315-12.728C47.226.072 46.946.012 39.776 0 14.344.012 8.77-1.12 3.751 4.082z" fill="url(#paint0_linear)"/><path d="M29.994 7.848c-9.077 0-17.697-.808-20.99 7.642-1.36 3.49-1.162 8.023-1.162 14.513 0 5.695-.182 11.047 1.163 14.51 3.284 8.455 11.975 7.645 20.985 7.645 8.692 0 17.655.905 20.987-7.645 1.363-3.525 1.163-7.99 1.163-14.51 0-8.655.477-14.243-3.72-18.438-4.25-4.25-9.998-3.717-18.436-3.717h.01zM28.01 11.84c18.935-.03 21.346-2.135 20.016 27.108-.473 10.342-8.348 9.207-18.028 9.207-17.65 0-18.157-.505-18.157-18.162 0-17.863 1.4-18.143 16.17-18.158v.005zm13.81 3.678a2.658 2.658 0 1 0 .001 5.315 2.658 2.658 0 0 0 0-5.315zm-11.825 3.107c-6.282 0-11.375 5.095-11.375 11.378 0 6.282 5.093 11.375 11.375 11.375 6.283 0 11.373-5.093 11.373-11.375 0-6.283-5.09-11.378-11.372-11.378zm0 3.993c9.763 0 9.776 14.77 0 14.77-9.76 0-9.774-14.77 0-14.77z" fill="#fff"/></g><defs><linearGradient id="paint0_linear" x1="3.866" y1="56.167" x2="59.63" y2="7.904" gradientUnits="userSpaceOnUse"><stop stop-color="#FD5"/><stop offset=".5" stop-color="#FF543E"/><stop offset="1" stop-color="#C837AB"/></linearGradient><clipPath id="clip0"><path fill="#fff" d="M0 0h60v60H0z"/></clipPath></defs></svg>
